X: 7
T: Old Joe's
R: jig
M: 6/8
L: 1/8
K: Dmaj
e | f2A AFA | BAF A3 | B/c/dB AFA | Bcd efg |f2A AFA | BAF A3 | B/c/dB AFA | Bdd d2 :|e | fgf efe | dBA d2e | fgf efe | dfa b2a |fgf efe | dBA d2e | fdB AFA | Bdd d2 :|


Tune 1732	Setting 15159

